X: 42478
T: Wexford Carol, The
R: waltz
M: 3/4
K: Cmajor
G, C>B,||C3D E<G|G3E F>E|C2G,A, _B,>A,|_B,3G, C>=B,|
C3D E<G|G3E F>G|E<C- CD C>B,|C3C C_B||
G3G/F/ _E>D|_E3F G>F|_E/D/C- CG,/A,/ _B,>A,|
_B,3G, C>=B,|C3D E<G|G3E F>G|E<C- CD C>B,|C3||

